brandFactory_export/3.Masa/Documento_Archivo ZIP_3Masa.svg

<?xml version="1.0" encoding="UTF-8"?>
<svg width="24px" height="24px" viewBox="0 0 24 24" version="1.1" xmlns="http://www.w3.org/2000/svg" xmlns:xlink="http://www.w3.org/1999/xlink">
    <title>3.Masa/Documento_Archivo ZIP_3Masa</title>
    <g id="Symbols" stroke="none" stroke-width="1" fill="none" fill-rule="evenodd">
        <g id="3.Masa/Documento_Archivo-ZIP_3Masa" fill="#5CB615" fill-rule="nonzero">
            <path d="M16.2117647,2.04281037e-13 C16.487395,2.04281037e-13 16.7462185,0.104201681 16.9445378,0.292436975 L23.307563,6.45042017 C23.512605,6.65546218 23.6235294,6.91764706 23.6235294,7.2 L23.6235294,21.9663866 C23.6235294,22.8672269 22.8504202,23.6268908 21.9327731,23.6268908 L7.31764706,23.6268908 C6.41680672,23.6268908 5.62689076,22.8504202 5.62689076,21.9663866 L5.66722689,18.6386555 L2.90756303,18.6386555 C1.30084034,18.6319328 0.00336134476,17.3310924 2.19149143e-10,15.7277311 L2.19149143e-10,10.8168067 C2.19149143e-10,9.21008403 1.30084034,7.9092437 2.90420168,7.90588235 L5.62352941,7.90588235 L5.62352941,1.6605042 C5.62352941,0.789915966 6.4302521,2.04281037e-13 7.31428571,2.04281037e-13 L16.2117647,2.04281037e-13 Z M14.7193277,9.36134454 L2.90420168,9.36134454 C2.10420168,9.36134454 1.45546219,10.010084 1.45546219,10.8134454 L1.45546219,15.7277311 C1.45546219,16.5277311 2.10420168,17.1798319 2.90420168,17.1798319 L14.7193277,17.1798319 C15.5193277,17.1798319 16.1680672,16.5277311 16.1680672,15.7277311 L16.1680672,10.8134454 C16.1680672,10.0134454 15.5193277,9.36134454 14.7193277,9.36134454 Z M7.39831933,11.1092437 L7.39831933,11.7310924 L5.27394958,14.8033613 L7.41176471,14.8033613 L7.41176471,15.5495798 L3.99327731,15.5495798 L3.99327731,14.9546218 L6.1512605,11.8554622 L4.05714286,11.8554622 L4.05714286,11.1092437 L7.39831933,11.1092437 Z M9.15966387,11.1058824 L9.15966387,15.5495798 L8.14453782,15.5495798 L8.14453782,11.1058824 L9.15966387,11.1058824 Z M11.6571429,11.1058824 C12.3529412,11.1058824 12.7932773,11.2033613 13.0789916,11.4689076 C13.3210084,11.6907563 13.4352941,12.0336134 13.4352941,12.507563 C13.4352941,12.9815126 13.3243697,13.3378151 13.102521,13.5865546 C12.8436975,13.8789916 12.4403361,14.0168067 11.8554622,14.0168067 L11.1394958,14.0168067 L11.1394958,15.5495798 L10.1243697,15.5495798 L10.1243697,11.1058824 L11.6571429,11.1058824 Z M11.6201681,11.8420168 L11.1462185,11.8420168 L11.1462185,13.2605042 L11.6470588,13.2605042 L11.6470588,13.2571429 C11.9731092,13.2571429 12.107563,13.210084 12.2386555,13.0890756 C12.3563025,12.9714286 12.4134454,12.7831933 12.4134454,12.5243697 C12.4134454,12.2857143 12.3630252,12.107563 12.2453782,11.9966387 C12.1210084,11.8857143 11.9327731,11.8420168 11.6201681,11.8420168 Z M16.6151261,2.00336134 L16.6151261,4.1210084 C16.6151261,4.91092437 16.8739496,5.57647059 17.3613445,6.05042017 C17.8588235,6.53109244 18.5579832,6.78319328 19.3915966,6.78319328 L21.5563025,6.78319328 L16.6151261,2.00336134 Z" id="Documento_Archivo-ZIP_3Masa"></path>
        </g>
    </g>
</svg>

<svg width="24" height="24" viewBox="0 0 24 24" xmlns="http://www.w3.org/2000/svg"><path d="M16.212 0c.275 0 .534.104.733.292l6.363 6.158c.205.205.316.468.316.75v14.766c0 .901-.774 1.66-1.691 1.66H7.318c-.901 0-1.691-.776-1.691-1.66l.04-3.327h-2.76A2.918 2.918 0 010 15.728v-4.911a2.91 2.91 0 012.904-2.911h2.72V1.66C5.624.79 6.43 0 7.314 0h8.898zm-1.493 9.361H2.904c-.8 0-1.449.65-1.449 1.452v4.915c0 .8.65 1.452 1.45 1.452h11.814c.8 0 1.45-.652 1.45-1.452v-4.915c0-.8-.65-1.452-1.45-1.452zM7.4 11.11v.622l-2.125 3.072h2.138v.747H3.993v-.595l2.158-3.1H4.057v-.746h3.341zm1.76-.003v4.444H8.146v-4.444H9.16zm2.498 0c.696 0 1.136.097 1.422.363.242.222.356.565.356 1.039s-.11.83-.332 1.079c-.26.292-.663.43-1.248.43h-.716v1.533h-1.015v-4.444h1.533zm-.037.736h-.474v1.419h.501v-.004c.326 0 .46-.047.592-.168.117-.118.174-.306.174-.565 0-.238-.05-.416-.168-.527-.124-.111-.312-.155-.625-.155zm4.995-9.839v2.118c0 .79.259 1.455.746 1.93.498.48 1.197.732 2.03.732h2.165l-4.94-4.78z" fill="#5CB615" fill-rule="nonzero"/></svg>
